svg/blobs-icons/no-decorations/fish.svg

<svg xmlns="http://www.w3.org/2000/svg" xmlns:xlink="http://www.w3.org/1999/xlink" preserveAspectRatio="xMidYMid" width="217" height="155" viewBox="0 0 217 155"><defs><style>.cls-3{fill:#ff3a2f}.cls-4{fill:#020403;opacity:.35}.cls-5{fill:#fff}.cls-6{fill:#142a3b}.cls-7{fill:#2476ff}</style></defs><g id="group-41svg"><path d="M158.983 101.185c0 29.932-24.264 54.196-54.195 54.196s-54.195-24.264-54.195-54.196c0-29.932 24.264-54.197 54.195-54.197s54.195 24.265 54.195 54.197z" id="path-1" class="cls-3" fill-rule="evenodd"/><path d="M114.151 47.851C128.614 57.583 138.13 74.1 138.13 92.843c0 29.932-24.264 54.197-54.195 54.197-3.2.0-6.316-.331999999999994-9.364-.863C83.204 151.987 93.599 155.381 104.788 155.381c29.931.0 54.195-24.264 54.195-54.196.0-26.733-19.372-48.891-44.832-53.334z" id="path-2" class="cls-4" fill-rule="evenodd"/><path d="M72.161 142.569C71.237 142.569 70.312 142.216 69.606 141.51 68.193 140.099 68.193 137.81 69.606 136.399c19.719-19.722 19.719-51.812.0-71.534C68.193 63.453 68.193 61.164 69.606 59.753 71.018 58.341 73.305 58.341 74.716 59.753c22.539 22.541 22.539 59.217.0 81.757C74.01 142.216 73.086 142.569 72.161 142.569z" id="path-3" class="cls-5" fill-rule="evenodd"/><path d="M186.584 101.185c0-19.449 12.724-35.911 30.295-41.559C212.665 58.271 208.178 57.523 203.514 57.523c-24.113.0-43.661 19.548-43.661 43.662.0 24.113 19.548 43.662 43.661 43.662C208.178 144.847 212.665 144.099 216.879 142.744c-17.571-5.648-30.295-22.11-30.295-41.559z" id="path-4" class="cls-6" fill-rule="evenodd"/><path d="M48.689 40.376c0 8.32-6.744 15.064-15.064 15.064-8.319.0-15.062-6.744-15.062-15.064.0-8.319 6.743-15.064 15.062-15.064 8.32.0 15.064 6.745 15.064 15.064z" id="path-5" class="cls-7" fill-rule="evenodd"/><path d="M16.13 8.048c0 4.453-3.609 8.063-8.062 8.063-4.453.0-8.062-3.61-8.062-8.063.0-4.452 3.609-8.062 8.062-8.062 4.453.0 8.062 3.61 8.062 8.062z" id="path-6" class="cls-7" fill-rule="evenodd"/><path d="M74.152 99.514c0 3.77200000000001-3.056 6.828-6.828 6.828-3.77.0-6.827-3.056-6.827-6.828C60.497 95.743 63.554 92.685 67.324 92.685 71.096 92.685 74.152 95.743 74.152 99.514z" id="path-7" class="cls-5" fill-rule="evenodd"/></g></svg>

<svg xmlns="http://www.w3.org/2000/svg" xmlns:xlink="http://www.w3.org/1999/xlink" preserveAspectRatio="xMidYMid" width="217" height="155" viewBox="0 0 217 155">
  <defs>
    <style>

      .cls-3 {
        fill: #ff3a2f;
      }

      .cls-4 {
        fill: #020403;
        opacity: 0.35;
      }

      .cls-5 {
        fill: #ffffff;
      }

      .cls-6 {
        fill: #142a3b;
      }

      .cls-7 {
        fill: #2476ff;
      }
    </style>
  </defs>
  <g id="group-41svg">
    <path d="M158.983,101.185 C158.983,131.117 134.719,155.381 104.788,155.381 C74.857,155.381 50.593,131.117 50.593,101.185 C50.593,71.253 74.857,46.988 104.788,46.988 C134.719,46.988 158.983,71.253 158.983,101.185 Z" id="path-1" class="cls-3" fill-rule="evenodd"/>
    <path d="M114.151,47.851 C128.614,57.583 138.130,74.100 138.130,92.843 C138.130,122.775 113.866,147.040 83.935,147.040 C80.735,147.040 77.619,146.708 74.571,146.177 C83.204,151.987 93.599,155.381 104.788,155.381 C134.719,155.381 158.983,131.117 158.983,101.185 C158.983,74.452 139.611,52.294 114.151,47.851 Z" id="path-2" class="cls-4" fill-rule="evenodd"/>
    <path d="M72.161,142.569 C71.237,142.569 70.312,142.216 69.606,141.510 C68.193,140.099 68.193,137.810 69.606,136.399 C89.325,116.677 89.325,84.587 69.606,64.865 C68.193,63.453 68.193,61.164 69.606,59.753 C71.018,58.341 73.305,58.341 74.716,59.753 C97.255,82.294 97.255,118.970 74.716,141.510 C74.010,142.216 73.086,142.569 72.161,142.569 Z" id="path-3" class="cls-5" fill-rule="evenodd"/>
    <path d="M186.584,101.185 C186.584,81.736 199.308,65.274 216.879,59.626 C212.665,58.271 208.178,57.523 203.514,57.523 C179.401,57.523 159.853,77.071 159.853,101.185 C159.853,125.298 179.401,144.847 203.514,144.847 C208.178,144.847 212.665,144.099 216.879,142.744 C199.308,137.096 186.584,120.634 186.584,101.185 Z" id="path-4" class="cls-6" fill-rule="evenodd"/>
    <path d="M48.689,40.376 C48.689,48.696 41.945,55.440 33.625,55.440 C25.306,55.440 18.563,48.696 18.563,40.376 C18.563,32.057 25.306,25.312 33.625,25.312 C41.945,25.312 48.689,32.057 48.689,40.376 Z" id="path-5" class="cls-7" fill-rule="evenodd"/>
    <path d="M16.130,8.048 C16.130,12.501 12.521,16.111 8.068,16.111 C3.615,16.111 0.006,12.501 0.006,8.048 C0.006,3.596 3.615,-0.014 8.068,-0.014 C12.521,-0.014 16.130,3.596 16.130,8.048 Z" id="path-6" class="cls-7" fill-rule="evenodd"/>
    <path d="M74.152,99.514 C74.152,103.286 71.096,106.342 67.324,106.342 C63.554,106.342 60.497,103.286 60.497,99.514 C60.497,95.743 63.554,92.685 67.324,92.685 C71.096,92.685 74.152,95.743 74.152,99.514 Z" id="path-7" class="cls-5" fill-rule="evenodd"/>
  </g>
</svg>
